X:1
T:The Book
T:The Book
T:John F. Noah
T:Mrs. J. M. Hunter, 1923
T:Public Domain Courtesy of the Cyber Hymnal™
T:Public Domain Courtesy of the Cyber Hymnal™
C:John F. Noah
Z:Public Domain
Z:Courtesy of the Cyber Hymnal™
%%score ( 1 2 ) ( 3 4 )
L:1/8
Q:1/4=92
M:3/4
K:Ab
V:1 treble 
V:2 treble 
V:3 bass 
V:4 bass 
V:1
 [CE][EA] [EB] | [Ac]3 [FB] [EA][EG] | [EA]3 E [EA][Ac] | [Ae]3 [Be] [A=d][Ad] | %4
w: 1.~There is a|book, a book more|blest, Than all the|books by earth pos-|
w: 2.~That pre- cious|Book my mo- ther|read, Ac- cept- ing|ev- ery word it|
w: 3.~’Twas fa- ther’s|com- pass and his|chart, He stored its|teach- ings in his|
w: 4.~This Book shall|be my com- fort,|too, Till life’s brief|jour- ney here is|
 [Ge]3 [Ge] [Ae][Bd] | [Ac]3 [Ec] [EB][EA] | [Fd]3 [FA] [EG][DF] | [CE][EA] [Ac]2 B2 | [EA]3 || %9
w: sessed; Its truth and|pre- cepts e’er a-|bide, It is the|Christ- ian’s on- ly|guide.|
w: said; And thru it|she has reached the|land, Where saints a-|bide at God’s right|hand.|
w: heart; And when he|came to death’s dark|vale, It was the|light which did not|fail.|
w: thru; And then, up|there, I will ac-|cord My praise to|God for His dear|Word.|
[M:4/4]"^Refrain" ABc | (z [Fd])FA B x3 | z [Ec]EA c x3 | z [Ae][Ae][A=d] [Ad] x3 | %13
w: ||||
w: O Book of|* life! O Book|* di- vine! How|* bright- ly thy|
w: ||||
w: ||||
 [Ge]4- [Ge]eed | (z [Ec])cB A x3 | z [Fd]AG F x3 | z [CE][EA]!fermata![Ac] [EB] x3 | %17
w: ||||
w: * * dear pag- es|* shine! Thou point-|* est out the|* heav’n- ly way|
w: ||||
w: ||||
 [EA]4- [EA] |] %18
w: |
w: |
w: |
w: |
V:2
 x3 | x6 | x3 E x2 | x6 | x6 | x6 | x6 | x4 (GE) | x3 ||[M:4/4] x3 | d4- F F F x | c4- E E E x | %12
 e4- A A A x | x8 | c4- E E E x | d4 F F F x | E4- C C C x | x5 |] %18
V:3
 A,[A,C] [A,D] | [A,E]3 [D,D] [E,C][E,B,] | [A,C]3 [A,C] [A,C][A,E] | [A,C]3 [G,B,] [F,B,]B, | %4
w: O * *|||* * * Book|
 [E,B,]3 [E,B,] [F,B,][G,E] | [A,E]3 [A,,A,] [B,,G,][C,A,] | [D,A,]3 [D,A,] [D,A,][D,A,] | %7
w: |||
 [E,A,][E,C] [E,E]2 [E,D]2 | [A,,A,C]3 ||[M:4/4] z3 | z [D,A,][D,A,][D,A,] [D,A,] z3 | %11
w: |||of life! O Book|
 z [A,,A,][A,,A,][A,,A,] [A,,A,] z3 | z [A,C][A,C][A,C] [A,C][A,C]B,B, | [E,B,]4- [E,B,] z3 | %14
w: di- vine! How bright-|ly thy dear pag- es shine! Thou|point- *|
 z A,A,A, A, z3 | z [D,A,][D,A,][D,A,] [D,A,] z3 | %16
w: est out the heav’n-|ly way That leads|
 z [E,A,][E,A,][E,A,] [E,A,][E,C]!fermata![E,E][E,D] | [A,,C]4- [A,,C] |] %18
w: to God’s e- ter- nal day. *||
V:4
 A, x2 | x6 | x6 | x5 B, | x6 | x6 | x6 | x6 | x3 ||[M:4/4] x3 | x8 | x8 | x6 B,B, | x8 | %14
 x A,A,A, A, x3 | x8 | x8 | x5 |] %18

